svgs/duotone/sidebar.svg

<svg xmlns="http://www.w3.org/2000/svg" viewBox="0 0 512 512"><!-- Font Awesome Pro 6.0.0-alpha2 by @fontawesome - https://fontawesome.com License - https://fontawesome.com/license (Commercial License) --><defs><style>.fa-secondary{opacity:.4}</style></defs><path d="M512 96V416C512 451.346 483.346 480 448 480H224V32H448C483.346 32 512 60.652 512 96Z" class="fa-secondary"/><path d="M64 32C28.654 32 0 60.652 0 96V416C0 451.346 28.654 480 64 480H224V32H64ZM136 336H88C74.746 336 64 325.254 64 312C64 298.744 74.746 288 88 288H136C149.254 288 160 298.744 160 312C160 325.254 149.254 336 136 336ZM136 240H88C74.746 240 64 229.254 64 216C64 202.744 74.746 192 88 192H136C149.254 192 160 202.744 160 216C160 229.254 149.254 240 136 240ZM136 144H88C74.746 144 64 133.254 64 120C64 106.744 74.746 96 88 96H136C149.254 96 160 106.744 160 120C160 133.254 149.254 144 136 144Z" class="fa-primary"/></svg>

<svg xmlns="http://www.w3.org/2000/svg" viewBox="0 0 512 512"><!--! Font Awesome Pro 6.0.0-alpha3 by @fontawesome - https://fontawesome.com License - https://fontawesome.com/license (Commercial License) --><defs><style>.fa-secondary{opacity:.4}</style></defs><path class="fa-primary" d="M64 32C28.65 32 0 60.65 0 96v320c0 35.35 28.65 64 64 64h160V32H64zM136 336h-48C74.75 336 64 325.3 64 312C64 298.7 74.75 288 88 288h48C149.3 288 160 298.7 160 312C160 325.3 149.3 336 136 336zM136 240h-48C74.75 240 64 229.3 64 216C64 202.7 74.75 192 88 192h48C149.3 192 160 202.7 160 216C160 229.3 149.3 240 136 240zM136 144h-48C74.75 144 64 133.3 64 120C64 106.7 74.75 96 88 96h48C149.3 96 160 106.7 160 120C160 133.3 149.3 144 136 144z"/><path class="fa-secondary" d="M512 96v320c0 35.35-28.65 64-64 64H224V32h224C483.3 32 512 60.65 512 96z"/></svg>
